X:1
T:Med Længsel Og Smærte
T:Med Længsel Og Smærte
T:Nedtegnet med siffernoter av Ole Andersen Mærlie (1873)
L:1/8
Q:1/4=70
M:2/4
K:F
V:1 treble nm="Stemme" snm="St."
V:1
 A |"Dm" F2 AB |"Gm" G2 BA |"Dm" F2"A7" GE |"Dm" D3 E | F2 AB |"Gm" G2 AB |"A" A4- | A2 z A | %9
"Dm" F2 AB |"Gm" G2 BA |"Dm" F2"A7" GE |"Dm" D3 E | F2 AB |"Gm" G2 AB |"A" A4- | A2 z A | %17
"Am" c2 cd | cA"Gm" Bc |"Dm" A3 F | A2 BA |"Gm" GB"A7" AG |"Dm" F3 F/G/ | A2 AB |"Gm" G2 BA | %25
"Dm" F2"A7" GE |"Dm" D4- | D3 z |] %28

